X:1
T:Title
%%score { ( 1 3 ) | ( 2 4 ) }
L:1/8
Q:1/4=100
M:4/4
K:Ab
V:1 treble nm="Grand Piano"
V:3 treble 
V:2 bass 
V:4 bass 
V:1
 c3 B A2 A2 | BA F2 [DF]2 [CE]2 | A3 B c2 e2 | A2 [=DAB]2 [EGB]4 | [EAc]3 [DGB] [CA]2 [CEA]2 | %5
w: A.~J.~Showalter * * *|||||
 .[DFB]2 [A,DF]2 [A,DF]2 [A,CE]2 | [CEA]3 [DEB] [EAc]2 [EAe]2 | [DGB]2 [EGc]2 [CA]4 | c>c c>B A4 | %9
w: ||||
 F>[EG] [FA]>[DF] [CE]4 | [CE]>[CE] [CA]>[DG] [EA]2 [Ec]2 | c2 B2 B4 | c>c c>B A4 | %13
w: ||||
 F>[EG] [FA]>[DF] [CE]4 | [CE]>[CE] [CEA]>[DEG] [EA]2 [EAc]2 | [EAc]2 [DGB]2 [CEA]4 |] %16
w: |||
V:2
 [A,E]3 [A,D] [A,C]2 [A,CE]2 | [D,D]2 [D,A,D]2 [A,,A,]2 [A,,A,]2 | [A,C]3 [A,D] [A,E]2 [G,B,E]2 | %3
 [F,CF]2 z z/[K:treble] c/[K:bass] E,4 | A,3 A, A,2 A,2 | z A D,2 A,,2 A,,2 | A,3 A, A,2 C,2 | %7
 E,2 E,2 A,,4 | [A,E]>[A,E] [A,E]>[A,D] [A,C]4 | [D,A,D]>[D,A,] [D,A,]>[D,A,] [A,,A,]4 | %10
 [A,,A,]>[A,,A,] [A,,E,]>[B,,E,] [C,A,]2 [A,,A,]2 | [E,A,E]2 [E,G,E]2 [E,G,E]4 | %12
 [A,E]>[A,E] [A,E]>[A,D] [A,C]4 | [D,A,D]>[D,A,] [D,A,]>[D,A,] [A,,A,]4 | %14
 [A,,A,]>[A,,A,] A,,>B,, C,2 A,,2 | E,2 E,2 A,,4 |] %16
V:3
 x8 | F2 z2 z4 | x8 | x8 | x8 | x8 | x8 | x8 | x8 | x8 | x8 | x8 | x8 | x8 | x8 | x8 |] %16
V:4
 x8 | x8 | x8 | z2 B,,2[K:treble][K:bass] z4 | x8 | D,2 z2 z4 | x8 | x8 | x8 | x8 | x8 | x8 | x8 | %13
 x8 | x8 | x8 |] %16

